src/img/icons/soc_2.svg

<svg width="40" height="40" viewBox="0 0 40 40" fill="none" xmlns="http://www.w3.org/2000/svg">
<g id="2">
<rect id="Rectangle 18623" x="0.5" y="0.5" width="39" height="39" rx="19.5" stroke="#E4DEE0"/>
<g id="Vector">
<path d="M21.2789 17.823V15.9574C21.2789 15.279 21.7143 15.1094 22.0408 15.1094C22.3673 15.1094 23.9456 15.1094 23.9456 15.1094V12H21.3333C18.3946 12 17.6871 14.3179 17.6871 15.7878V17.823H16V20.9889H17.6871C17.6871 25.0593 17.6871 28 17.6871 28H21.2789C21.2789 28 21.2789 25.0028 21.2789 20.9889H23.6735L24 17.823H21.2789Z" fill="white"/>
<path d="M21.2789 17.823V15.9574C21.2789 15.279 21.7143 15.1094 22.0408 15.1094C22.3673 15.1094 23.9456 15.1094 23.9456 15.1094V12H21.3333C18.3946 12 17.6871 14.3179 17.6871 15.7878V17.823H16V20.9889H17.6871C17.6871 25.0593 17.6871 28 17.6871 28H21.2789C21.2789 28 21.2789 25.0028 21.2789 20.9889H23.6735L24 17.823H21.2789Z" fill="#AE9BA5"/>
</g>
</g>
</svg>

<svg xmlns="http://www.w3.org/2000/svg" width="40" height="40" fill="none">
  <rect width="39" height="39" x=".5" y=".5" stroke="#E4DEE0" rx="19.5"/>
  <path fill="#fff" d="M21.279 17.823v-1.866c0-.678.435-.848.762-.848h1.905V12h-2.613c-2.938 0-3.646 2.318-3.646 3.788v2.035H16v3.166h1.687V28h3.592v-7.011h2.395L24 17.823h-2.721Z"/>
  <path fill="#AE9BA5" d="M21.279 17.823v-1.866c0-.678.435-.848.762-.848h1.905V12h-2.613c-2.938 0-3.646 2.318-3.646 3.788v2.035H16v3.166h1.687V28h3.592v-7.011h2.395L24 17.823h-2.721Z"/>
</svg>
